solution/ui/src/images/graph_icon.svg

<svg fill="none" height="98" viewBox="0 0 98 98" width="98" xmlns="http://www.w3.org/2000/svg"><circle cx="49" cy="49" fill="#00518b" r="49"/><g stroke="#fff" stroke-width="2"><circle cx="49" cy="49" fill="#00518b" r="40"/><path d="m30 66h36"/><path d="m31 66v-36"/></g><path d="m65 33c0-.5523-.4477-1-1-1h-9c-.5523 0-1 .4477-1 1s.4477 1 1 1h8v8c0 .5523.4477 1 1 1s1-.4477 1-1zm-32.2929 32.7071 32-32-1.4142-1.4142-32 32z" fill="#fff"/><path d="m48 65.009v-35.0196" opacity=".9" stroke="#58acef" stroke-width="4"/><circle cx="48" cy="49" fill="#58acef" r="6"/></svg>

<svg width="98" height="98" viewBox="0 0 98 98" fill="none" xmlns="http://www.w3.org/2000/svg">
<circle cx="49" cy="49" r="49" fill="#00518B"/>
<circle cx="49" cy="49" r="40" fill="#00518B" stroke="white" stroke-width="2"/>
<line x1="30" y1="66" x2="66" y2="66" stroke="white" stroke-width="2"/>
<path d="M31 66L31 30" stroke="white" stroke-width="2"/>
<path d="M65 33C65 32.4477 64.5523 32 64 32L55 32C54.4477 32 54 32.4477 54 33C54 33.5523 54.4477 34 55 34L63 34L63 42C63 42.5523 63.4477 43 64 43C64.5523 43 65 42.5523 65 42L65 33ZM32.7071 65.7071L64.7071 33.7071L63.2929 32.2929L31.2929 64.2929L32.7071 65.7071Z" fill="white"/>
<line opacity="0.9" x1="48" y1="65.009" x2="48" y2="29.9894" stroke="#58ACEF" stroke-width="4"/>
<circle cx="48" cy="49" r="6" fill="#58ACEF"/>
</svg>
